usr/share/icons/biglinux-icons-material-dark/22/actions/draw-connector.svg

<svg xmlns="http://www.w3.org/2000/svg" viewBox="0 0 22 22">
<defs id="defs3051">
<style id="current-color-scheme" type="text/css">
.ColorScheme-Text{color:#dedede}.ColorScheme-Highlight{color:#3daee9}
</style>
</defs>
<path d="M16 5.313 5.313 16H6v.688L16.688 6H16z" class="ColorScheme-Text" style="fill:currentColor;fill-opacity:1;stroke:none"/>
<path d="M15 3v4h4V3zm1 1h2v2h-2zM3 15v4h4v-4zm1 1h2v2H4z" class="ColorScheme-Highlight" style="fill:currentColor;fill-opacity:1;stroke:none"/>
</svg>

<svg xmlns="http://www.w3.org/2000/svg" viewBox="0 0 22 22">
  <defs id="defs3051">
    <style type="text/css" id="current-color-scheme">
      .ColorScheme-Text {
        color:#dedede;
      }
      .ColorScheme-Highlight {
        color:#3daee9;
      }
      </style>
  </defs>
 <path 
     style="fill:currentColor;fill-opacity:1;stroke:none" 
     d="M 16 5.3125 L 5.3125 16 L 6 16 L 6 16.6875 L 16.6875 6 L 16 6 L 16 5.3125 z "
     class="ColorScheme-Text"
     />
 <path 
     style="fill:currentColor;fill-opacity:1;stroke:none" 
     d="M 15 3 L 15 7 L 19 7 L 19 3 L 15 3 z M 16 4 L 18 4 L 18 6 L 16 6 L 16 4 z M 3 15 L 3 19 L 7 19 L 7 15 L 3 15 z M 4 16 L 6 16 L 6 18 L 4 18 L 4 16 z "
     class="ColorScheme-Highlight"
     />
</svg>
